X:1
T:Udite lagrimosi
T:Udite lagrimosi
T:Claudio Saracini
T:Source : Le secondo Musische per cantar e sonar---Venetia---A.Vincenti---1620. Editor : André Vierendeels (03/12/15).
T:Notes : Original clefs : C1, F4 Editorial accidentals above the staff Figures above the BC are notated in original print Text by G.B.Guarini (Il Pastor Fido) Dedicated to Claudio Monteverdi
C:Claudio Saracini
%%score 1 2
L:1/8
Q:1/4=90
M:4/4
K:F
V:1 treble nm="Soprano" snm="S"
V:2 bass nm="BC" snm="BC"
V:1
 z2 G2 G4- | G4 G4 | BB B4- B2- | BD D4 DC | D8 | D8 | A2 B/A/B/c/ d>e f2 | B8 | z2 cc c2 c>^c | %9
w: U- di-|* te|la- gri- mo- *|* si Spir- ti d'A-|ver-|no,|u- di- * * * * * *|te,|no- va sor- te di|
 ^c8 | d8 | z A A4 A2 | A8 | G8 :: z E E4 E2 | A6 D2 | D8 | D8 | GG G3 G ^F2 | G4 G4 | %20
w: pe-|na,|e di tor-|men-|to.|Mi- ra- te|cru- do'af-|fet-|to|in sem- bian- te pie-|to- so,|
 z2 AB c2 GA | B2 Bc d2 DE | ^F8 | G8 | AA A3 G/F/ E/D/C/B,/ | A,4 A,4 | z2 E2 A4 | z2 A2 c4 | %28
w: la mia don- na cru-|del, la mia don- na cru-|del|piu|dell' in- fer- * * * * * *|* no.|Per- che,|per- che'u-|
 B B2 A A2 GG | GG G3 ^CCC | ^C2 A,/B,/C/D/ E/F/G/A/ B/c/d/e/ | E/F/G/A/ E/F/G/A/ ^C4 | D8 | z8 | %34
w: na so- la mor- te non|puo far sa- zia la suo-|fie- ra _ _ _ _ _ _ _ _ _ _ _|_ _ _ _ _ _ _ _ vo-|glia,||
 A2 B2 c2 d2 | E2 F2 G2 A2 | F2 F4 E2 | D8 | C8 | z8 | G2 A2 B2 c2 | D2 E2 F2 G2 | A2 =B4 c2 | d8 | %44
w: e la mia vi-|ta'è qua- si'u- na|per- pe- tua|mor-|te,||e la mia vi-|ta'è qua- si'u- na|per- pe- tua|mor-|
 c8 | dd d4 GE | ^F8 | ^F8 | z2 A2 c3 B | A6 G2 | G8 | G8 | A2 EE ED ^C2- | C^F ^C4 D2 | E8 | D8 | %56
w: te,|mi- co- man- da ch'io|vi-|va,|per- che la|vi- ta|mi-|a,|di mil- le mor- t'il di|_ ri- cet- to|si-|a,|
 d2 AA AG ^F2- | F=B B4 B2 | A8 | G8 :| %60
w: di mil- le mor- te'il di|_ ri- cet- to|si-|a.|
V:2
 G,,8 | G,,8 | G,,4 D,4- | D,4 D,4 | D,,8 | D,8- | D,2 G,2 B,4- | B,4 B,,4 | F,4 F,,4 | %9
"^#" A,,4 ^F,,4 | ^F,,8- | F,,4 D,4- | D,4 D,4 | G,,8 ::"^#" A,,8 | A,,4 ^F,,4 | ^F,,8- | F,,8 | %18
 G,2 E,2 C,2 A,,2 | G,,4 G,,4 | F,,4 G,,4- | G,,4 D,4- | D,4 C,4 | =B,,8 | D,4 A,,4- | A,,4 A,,4 | %26
 A,,8 | F,,6 G,,2- | G,,8- | G,,4 A,,4 | A,,8- | A,,8 | D,4 E,2 ^F,2 | G,2 A,,2 =B,,2 ^C,2 | D,8- | %35
 D,8 | G,,8- | G,,8 | C,4 D,2 E,2 | F,2 G,,2 A,,2 =B,,2 | C,8- | C,8- | C,2 G,,2 G,,4- | G,,8 | %44
 C,8 | =B,,6 C,2 | D,8 | D,,8 | F,,6 G,,2 | A,,4 =B,,4 | C,8 | C,8 | A,,8- | A,,8 | A,,8 | D,8 | %56
 D,8- | D,8- | D,8 | G,,8 :| %60

